Origami/64x64/apps/preferences-desktop-gaming.svg

<svg width="64" height="64" version="1" xmlns="http://www.w3.org/2000/svg">
 <path d="m18.076645 10.999722c-6.967656 0-12.212672 5.506015-12.578948 12.323584l-1.3962146 26.01912c-0.8817461 5.087828 4.1558012 8.29972 8.3858991 2.737909l7.512619-11.080602 23-2.3e-5 8.565571 11.424615c4.197455 5.533813 8.927603 0.979966 8.392909-2.765907l-1.375789-25.917124c4e-3 -0.14 0.02003-0.275991 0.02003-0.417986-4e-6 -6.827371-5.611297-12.323586-12.580355-12.323586h-27.946322z" style="opacity:.2"/>
 <path d="m18.076645 10c-6.967656 0-12.212672 5.506015-12.578948 12.323584l-1.3962146 26.01912c-0.8817461 5.087828 4.1558012 8.29972 8.3858991 2.737909l7.512619-11.080602 23-2.3e-5 8.565571 11.424615c4.197455 5.533813 8.927603 0.979966 8.392909-2.765907l-1.375789-25.917124c4e-3 -0.14 0.02003-0.275991 0.02003-0.417986-4e-6 -6.827371-5.611297-12.323586-12.580355-12.323586h-27.946322z" style="fill:#4f4f4f"/>
 <path d="m16.000025 16.999925v4.000025h-4.000025v4.000025h4.000025v4.000025h4.000025v-4.000025h4.000026v-4.000025h-4.000026v-4.000025h-4.000025zm30.000189 0a2.0000126 2.0000126 0 0 0 -2.000012 2.000012 2.0000126 2.0000126 0 0 0 2.000012 2.000013 2.0000126 2.0000126 0 0 0 2.000013 -2.000013 2.0000126 2.0000126 0 0 0 -2.000013 -2.000012zm-4.000025 4.000025a2.0000126 2.0000126 0 0 0 -2.000013 2.000012 2.0000126 2.0000126 0 0 0 2.000013 2.000013 2.0000126 2.0000126 0 0 0 2.000013 -2.000013 2.0000126 2.0000126 0 0 0 -2.000013 -2.000012zm8.00005 0a2.0000126 2.0000126 0 0 0 -2.000012 2.000012 2.0000126 2.0000126 0 0 0 2.000012 2.000013 2.0000126 2.0000126 0 0 0 2.000013 -2.000013 2.0000126 2.0000126 0 0 0 -2.000013 -2.000012zm-4.000025 4.000025a2.0000126 2.0000126 0 0 0 -2.000012 2.000013 2.0000126 2.0000126 0 0 0 2.000012 2.000012 2.0000126 2.0000126 0 0 0 2.000013 -2.000012 2.0000126 2.0000126 0 0 0 -2.000013 -2.000013z" style="opacity:.2"/>
 <path d="m16.000025 16.000038v4.000025h-4.000025v4.000025h4.000025v4.000026h4.000025v-4.000026h4.000026v-4.000025h-4.000026v-4.000025h-4.000025z" style="fill:#e4e4e4"/>
 <path d="m46.000012 16.000038a2.0000126 2.0000126 0 0 0 -2.000012 2.000013 2.0000126 2.0000126 0 0 0 2.000012 2.000012 2.0000126 2.0000126 0 0 0 2.000013 -2.000012 2.0000126 2.0000126 0 0 0 -2.000013 -2.000013z" style="fill:#ee5353"/>
 <path d="m42.000013 20.000063a2.0000126 2.0000126 0 0 0 -2.000013 2.000013 2.0000126 2.0000126 0 0 0 2.000013 2.000012 2.0000126 2.0000126 0 0 0 2.000013 -2.000012 2.0000126 2.0000126 0 0 0 -2.000013 -2.000013z" style="fill:#ee5353"/>
 <path d="m50.000012 20.000063a2.0000126 2.0000126 0 0 0 -2.000012 2.000013 2.0000126 2.0000126 0 0 0 2.000012 2.000012 2.0000126 2.0000126 0 0 0 2.000013 -2.000012 2.0000126 2.0000126 0 0 0 -2.000013 -2.000013z" style="fill:#ffca58"/>
 <path d="m46.000012 24.000088a2.0000126 2.0000126 0 0 0 -2.000012 2.000013 2.0000126 2.0000126 0 0 0 2.000012 2.000013 2.0000126 2.0000126 0 0 0 2.000013 -2.000013 2.0000126 2.0000126 0 0 0 -2.000013 -2.000013z" style="fill:#ffca58"/>
 <path d="m18.087891 10c-6.958644 0-12.196698 5.506176-12.5625 12.324219l-1.3945312 26.019531c-0.0981794 0.567694-0.095657 1.09673-0.0527344 1.605469 0.0153159-0.201066 0.0165785-0.396408 0.0527344-0.605469l1.3945312-26.019531c0.3658023-6.818043 5.6038564-12.324219 12.5625-12.324219h27.910156c6.789939 0 12.274305 5.235387 12.539062 11.830078 0.008578-0.16869 0.025391-0.335108 0.025391-0.505859 0-6.827443-5.604409-12.324219-12.564453-12.324219h-27.910156z" style="fill:#ffffff;opacity:.1"/>
</svg>

<svg xmlns="http://www.w3.org/2000/svg" width="64" height="64" version="1">
 <path style="opacity:0.2" d="m 18.076645,10.999722 c -6.967656,0 -12.2126724,5.506015 -12.5789485,12.323584 l -1.3962146,26.01912 c -0.8817461,5.087828 4.1558012,8.29972 8.3858991,2.737909 L 20,40.999733 l 23,-2.3e-5 8.565571,11.424615 c 4.197455,5.533813 8.927603,0.979966 8.392909,-2.765907 L 58.582691,23.741294 c 0.004,-0.14 0.02003,-0.275991 0.02003,-0.417986 -4e-6,-6.827371 -5.611297,-12.323586 -12.580355,-12.323586 l -27.946322,0 z"/>
 <path style="fill:#4f4f4f" d="M 18.076645,10 C 11.108989,10 5.8639726,15.506015 5.4976965,22.323584 l -1.3962146,26.01912 c -0.8817461,5.087828 4.1558012,8.29972 8.3858991,2.737909 L 20,40.000011 l 23,-2.3e-5 8.565571,11.424615 c 4.197455,5.533813 8.927603,0.979966 8.392909,-2.765907 L 58.582691,22.741572 c 0.004,-0.14 0.02003,-0.275991 0.02003,-0.417986 C 58.602717,15.496215 52.991424,10 46.022366,10 l -27.946322,0 z"/>
 <path style="opacity:0.2" d="m 16.000025,16.999925 0,4.000025 -4.000025,0 0,4.000025 4.000025,0 0,4.000025 4.000025,0 0,-4.000025 4.000026,0 0,-4.000025 -4.000026,0 0,-4.000025 -4.000025,0 z m 30.000189,0 a 2.0000126,2.0000126 0 0 0 -2.000012,2.000012 2.0000126,2.0000126 0 0 0 2.000012,2.000013 2.0000126,2.0000126 0 0 0 2.000013,-2.000013 2.0000126,2.0000126 0 0 0 -2.000013,-2.000012 z m -4.000025,4.000025 a 2.0000126,2.0000126 0 0 0 -2.000013,2.000012 2.0000126,2.0000126 0 0 0 2.000013,2.000013 2.0000126,2.0000126 0 0 0 2.000013,-2.000013 2.0000126,2.0000126 0 0 0 -2.000013,-2.000012 z m 8.00005,0 a 2.0000126,2.0000126 0 0 0 -2.000012,2.000012 2.0000126,2.0000126 0 0 0 2.000012,2.000013 2.0000126,2.0000126 0 0 0 2.000013,-2.000013 2.0000126,2.0000126 0 0 0 -2.000013,-2.000012 z m -4.000025,4.000025 A 2.0000126,2.0000126 0 0 0 44.000202,26.999988 2.0000126,2.0000126 0 0 0 46.000214,29 2.0000126,2.0000126 0 0 0 48.000227,26.999988 2.0000126,2.0000126 0 0 0 46.000214,24.999975 Z"/>
 <path style="fill:#cccccc" d="m 16.000025,16.000038 0,4.000025 -4.000025,0 0,4.000025 4.000025,0 0,4.000026 4.000025,0 0,-4.000026 4.000026,0 0,-4.000025 -4.000026,0 0,-4.000025 -4.000025,0 z"/>
 <path style="fill:#ee5353" d="M 46.000012,16.000038 A 2.0000126,2.0000126 0 0 0 44,18.000051 a 2.0000126,2.0000126 0 0 0 2.000012,2.000012 2.0000126,2.0000126 0 0 0 2.000013,-2.000012 2.0000126,2.0000126 0 0 0 -2.000013,-2.000013 z"/>
 <path style="fill:#ee5353" d="M 42.000013,20.000063 A 2.0000126,2.0000126 0 0 0 40,22.000076 a 2.0000126,2.0000126 0 0 0 2.000013,2.000012 2.0000126,2.0000126 0 0 0 2.000013,-2.000012 2.0000126,2.0000126 0 0 0 -2.000013,-2.000013 z"/>
 <path style="fill:#ffca58" d="M 50.000012,20.000063 A 2.0000126,2.0000126 0 0 0 48,22.000076 a 2.0000126,2.0000126 0 0 0 2.000012,2.000012 2.0000126,2.0000126 0 0 0 2.000013,-2.000012 2.0000126,2.0000126 0 0 0 -2.000013,-2.000013 z"/>
 <path style="fill:#ffca58" d="M 46.000012,24.000088 A 2.0000126,2.0000126 0 0 0 44,26.000101 a 2.0000126,2.0000126 0 0 0 2.000012,2.000013 2.0000126,2.0000126 0 0 0 2.000013,-2.000013 2.0000126,2.0000126 0 0 0 -2.000013,-2.000013 z"/>
 <path style="opacity:0.1;fill:#ffffff" d="M 18.087891 10 C 11.129247 10 5.8911929 15.506176 5.5253906 22.324219 L 4.1308594 48.34375 C 4.03268 48.911444 4.0352024 49.44048 4.078125 49.949219 C 4.0934409 49.748153 4.0947035 49.552811 4.1308594 49.34375 L 5.5253906 23.324219 C 5.8911929 16.506176 11.129247 11 18.087891 11 L 45.998047 11 C 52.787986 11 58.272352 16.235387 58.537109 22.830078 C 58.545687 22.661388 58.5625 22.49497 58.5625 22.324219 C 58.5625 15.496776 52.958091 10 45.998047 10 L 18.087891 10 z"/>
</svg>
